resources/send.svg

<svg xmlns="http://www.w3.org/2000/svg" xmlns:xlink="http://www.w3.org/1999/xlink" width="16" height="16"><linearGradient id="a" x1="11.369" x2="3.641" y1="1.065" y2="14.451" gradientUnits="userSpaceOnUse"><stop offset="0" stop-color="#ff9640"/><stop offset=".6" stop-color="#fc4055"/><stop offset="1" stop-color="#e31587"/></linearGradient><linearGradient id="b" x1="11.369" x2="3.641" y1="1.065" y2="14.451" gradientUnits="userSpaceOnUse"><stop offset="0" stop-color="#f4f4f736e" stop-opacity=".8"/><stop offset=".094" stop-color="#f4f4f736e" stop-opacity=".699"/><stop offset=".752" stop-color="#f4f4f736e" stop-opacity="0"/></linearGradient><linearGradient id="c" x1="8.984" x2="12.975" y1="10.186" y2="3.273" gradientUnits="userSpaceOnUse"><stop offset="0" stop-color="#0090ed"/><stop offset=".386" stop-color="#5b6df8"/><stop offset=".629" stop-color="#9059ff"/><stop offset="1" stop-color="#b833e1"/></linearGradient><linearGradient id="d" x1="8.119" x2="14.738" y1="7.437" y2="9.03" gradientUnits="userSpaceOnUse"><stop offset="0" stop-color="#054096" stop-opacity=".5"/><stop offset=".054" stop-color="#0f3d9c" stop-opacity=".441"/><stop offset=".261" stop-color="#2f35b1" stop-opacity=".249"/><stop offset=".466" stop-color="#462fbf" stop-opacity=".111"/><stop offset=".669" stop-color="#542bc8" stop-opacity=".028"/><stop offset=".864" stop-color="#592acb" stop-opacity="0"/></linearGradient><linearGradient id="e" x1="12.93" x2="9.059" y1="3.351" y2="10.055" gradientUnits="userSpaceOnUse"><stop offset="0" stop-color="#722291" stop-opacity=".5"/><stop offset=".295" stop-color="#722291" stop-opacity="0"/></linearGradient><path fill="url(#a)" d="m8.017 0a8.036 8.036 0 0 0 -7.978 7.374 1.522 1.522 0 0 0 .4 1.151 1.5 1.5 0 0 0 1.096.475h5.465v3.584l-1.293-1.291a1 1 0 0 0 -1.414 1.414l3 3a1 1 0 0 0 .325.216.986.986 0 0 0 .764 0 1 1 0 0 0 .325-.216l3-3a1 1 0 0 0 -1.414-1.414l-1.293 1.293v-3.586h5.5a1.5 1.5 0 0 0 1.1-.478 1.523 1.523 0 0 0 .4-1.148 8.037 8.037 0 0 0 -7.983-7.374zm0 7h-5.917a6 6 0 0 1 11.84 0z"/><path fill="url(#b)" d="m8.017 0a8.036 8.036 0 0 0 -7.978 7.374 1.522 1.522 0 0 0 .4 1.151 1.5 1.5 0 0 0 1.096.475h5.465v3.584l-1.293-1.291a1 1 0 0 0 -1.414 1.414l3 3a1 1 0 0 0 .325.216.986.986 0 0 0 .764 0 1 1 0 0 0 .325-.216l3-3a1 1 0 0 0 -1.414-1.414l-1.293 1.293v-3.586h5.5a1.5 1.5 0 0 0 1.1-.478 1.523 1.523 0 0 0 .4-1.148 8.037 8.037 0 0 0 -7.983-7.374zm0 7h-5.917a6 6 0 0 1 11.84 0z"/><path fill="url(#c)" d="m7 9 1.009-7a6.042 6.042 0 0 1 5.928 5h-2.937a2 2 0 0 0 -2 2h5.5a1.5 1.5 0 0 0 1.5-1.626c-.327-3.574-4.549-5.517-7.991-5.374z"/><path fill="url(#d)" d="m13.937 7h-2.937a2 2 0 0 0 -2 2h5.5a1.5 1.5 0 0 0 1.1-.478z" opacity=".9"/><path fill="url(#e)" d="m15.6 8.522a1.5 1.5 0 0 0 .4-1.148c-.327-3.574-4.549-5.517-7.991-5.374a6.042 6.042 0 0 1 5.928 5z"/></svg>

<svg width="16" height="16">
  <linearGradient id="send_svg__a" x1="11.369" x2="3.641" y1="1.065" y2="14.451" gradientUnits="userSpaceOnUse">
    <stop offset="0" stop-color="#ff9640"/>
    <stop offset=".6" stop-color="#fc4055"/>
    <stop offset="1" stop-color="#e31587"/>
  </linearGradient>
  <linearGradient id="send_svg__b" x1="11.369" x2="3.641" y1="1.065" y2="14.451" gradientUnits="userSpaceOnUse">
    <stop offset="0" stop-color="#f4f4f736e" stop-opacity=".8"/>
    <stop offset=".094" stop-color="#f4f4f736e" stop-opacity=".699"/>
    <stop offset=".752" stop-color="#f4f4f736e" stop-opacity="0"/>
  </linearGradient>
  <linearGradient id="send_svg__c" x1="8.984" x2="12.975" y1="10.186" y2="3.273" gradientUnits="userSpaceOnUse">
    <stop offset="0" stop-color="#0090ed"/>
    <stop offset=".386" stop-color="#5b6df8"/>
    <stop offset=".629" stop-color="#9059ff"/>
    <stop offset="1" stop-color="#b833e1"/>
  </linearGradient>
  <linearGradient id="send_svg__d" x1="8.119" x2="14.738" y1="7.437" y2="9.03" gradientUnits="userSpaceOnUse">
    <stop offset="0" stop-color="#054096" stop-opacity=".5"/>
    <stop offset=".054" stop-color="#0f3d9c" stop-opacity=".441"/>
    <stop offset=".261" stop-color="#2f35b1" stop-opacity=".249"/>
    <stop offset=".466" stop-color="#462fbf" stop-opacity=".111"/>
    <stop offset=".669" stop-color="#542bc8" stop-opacity=".028"/>
    <stop offset=".864" stop-color="#592acb" stop-opacity="0"/>
  </linearGradient>
  <linearGradient id="send_svg__e" x1="12.93" x2="9.059" y1="3.351" y2="10.055" gradientUnits="userSpaceOnUse">
    <stop offset="0" stop-color="#722291" stop-opacity=".5"/>
    <stop offset=".295" stop-color="#722291" stop-opacity="0"/>
  </linearGradient>
  <path fill="url(#send_svg__a)" d="M8.017 0A8.036 8.036 0 0 0 .039 7.374a1.522 1.522 0 0 0 .4 1.151A1.5 1.5 0 0 0 1.535 9H7v3.584l-1.293-1.291a1 1 0 0 0-1.414 1.414l3 3a1 1 0 0 0 .325.216.986.986 0 0 0 .764 0 1 1 0 0 0 .325-.216l3-3a1 1 0 0 0-1.414-1.414L9 12.586V9h5.5a1.5 1.5 0 0 0 1.1-.478 1.523 1.523 0 0 0 .4-1.148A8.037 8.037 0 0 0 8.017 0zm0 7H2.1a6 6 0 0 1 11.84 0z"/>
  <path fill="url(#send_svg__b)" d="M8.017 0A8.036 8.036 0 0 0 .039 7.374a1.522 1.522 0 0 0 .4 1.151A1.5 1.5 0 0 0 1.535 9H7v3.584l-1.293-1.291a1 1 0 0 0-1.414 1.414l3 3a1 1 0 0 0 .325.216.986.986 0 0 0 .764 0 1 1 0 0 0 .325-.216l3-3a1 1 0 0 0-1.414-1.414L9 12.586V9h5.5a1.5 1.5 0 0 0 1.1-.478 1.523 1.523 0 0 0 .4-1.148A8.037 8.037 0 0 0 8.017 0zm0 7H2.1a6 6 0 0 1 11.84 0z"/>
  <path fill="url(#send_svg__c)" d="m7 9 1.009-7a6.042 6.042 0 0 1 5.928 5H11a2 2 0 0 0-2 2h5.5A1.5 1.5 0 0 0 16 7.374C15.673 3.8 11.451 1.857 8.009 2z"/>
  <path fill="url(#send_svg__d)" d="M13.937 7H11a2 2 0 0 0-2 2h5.5a1.5 1.5 0 0 0 1.1-.478z" opacity=".9"/>
  <path fill="url(#send_svg__e)" d="M15.6 8.522a1.5 1.5 0 0 0 .4-1.148C15.673 3.8 11.451 1.857 8.009 2a6.042 6.042 0 0 1 5.928 5z"/>
</svg>
